assets/svg/fabric.svg

<svg id="Layer_5" enable-background="new 0 0 64 64" height="512" viewBox="0 0 64 64" width="512" xmlns="http://www.w3.org/2000/svg"><g><g><g><path d="m56 14c3.31 0 6 2.69 6 6 0 1.66-.67 3.16-1.76 4.24-1.08 1.09-2.58 1.76-4.24 1.76h-22-6-2c3.31 0 6-2.69 6-6 0-1.66-.67-3.16-1.76-4.24-1.08-1.09-2.58-1.76-4.24-1.76z" fill="#5cd6b3"/></g><g><path d="m5 20c-.83 0-1.58-.34-2.12-.88s-.88-1.29-.88-2.12c0-1.66 1.34-3 3-3h21c1.66 0 3.16.67 4.24 1.76 1.09 1.08 1.76 2.58 1.76 4.24 0 3.31-2.69 6-6 6h-15-6c-.83 0-1.58-.34-2.12-.88s-.88-1.29-.88-2.12c0-1.66 1.34-3 3-3z" fill="#48cfad"/></g><g><path d="m56 2c3.31 0 6 2.69 6 6 0 1.66-.67 3.16-1.76 4.24-1.08 1.09-2.58 1.76-4.24 1.76h-30c3.31 0 6-2.69 6-6 0-1.66-.67-3.16-1.76-4.24-1.08-1.09-2.58-1.76-4.24-1.76z" fill="#ff826e"/></g><g><path d="m62 43.83v6.17c0 1.1-.29 2.12-.8 3-.16.26-.33.51-.52.75-.94-.79-3.68-3.27-3.68-5.75 0-1.83 1.1-3.64 1.98-4.79.53.49 1.24.79 2.02.79.35 0 .69-.06 1-.17z" fill="#ff826e"/></g><g><path d="m58.98 43.21c-.07-.05-.14-.12-.19-.19-.49-.53-.79-1.24-.79-2.02s.3-1.49.79-2.02c.05-.07.12-.14.19-.19.53-.49 1.24-.79 2.02-.79.35 0 .69.06 1 .17v5.66c-.31.11-.65.17-1 .17-.78 0-1.49-.3-2.02-.79z" fill="#fc6e51"/></g><g><path d="m62 32v6.17c-.31-.11-.65-.17-1-.17-.78 0-1.49.3-2.02.79-.88-1.15-1.98-2.96-1.98-4.79 0-2.48 2.74-4.96 3.68-5.75.83 1.03 1.32 2.33 1.32 3.75z" fill="#ff826e"/></g><g><path d="m61.2 53c.51.88.8 1.91.8 3 0 1.66-.67 3.16-1.76 4.24-1.08 1.09-2.58 1.76-4.24 1.76h-30c3.31 0 6-2.69 6-6v-.35c.63.23 1.3.35 2 .35h22c1.89 0 3.58-.88 4.68-2.25.19-.24.36-.49.52-.75z" fill="#5cd6b3"/></g><g><path d="m56 26c1.89 0 3.58.88 4.68 2.25-.94.79-3.68 3.27-3.68 5.75 0 1.83 1.1 3.64 1.98 4.79-.07.05-.14.12-.19.19-1.15-.88-2.96-1.98-4.79-1.98-3 0-6 4-6 4s3 4 6 4c1.83 0 3.64-1.1 4.79-1.98.05.07.12.14.19.19-.88 1.15-1.98 2.96-1.98 4.79 0 2.48 2.74 4.96 3.68 5.75-1.1 1.37-2.79 2.25-4.68 2.25h-22c3.31 0 6-2.69 6-6v-18c0-3.31-2.69-6-6-6z" fill="#ffeaa7"/></g><g><path d="m58.79 38.98c-.49.53-.79 1.24-.79 2.02s.3 1.49.79 2.02c-1.15.88-2.96 1.98-4.79 1.98-3 0-6-4-6-4s3-4 6-4c1.83 0 3.64 1.1 4.79 1.98z" fill="#ff826e"/></g><g><path d="m11 32c-1.66 0-3-1.34-3-3 0-.83.34-1.58.88-2.12s1.29-.88 2.12-.88h15 2 6c3.31 0 6 2.69 6 6v18c0 3.31-2.69 6-6 6-.7 0-1.37-.12-2-.35-.85-.29-1.62-.78-2.24-1.41-1.09-1.08-1.76-2.58-1.76-4.24v-6-5c0-.55-.45-1-1-1h-2-14c-1.66 0-3-1.34-3-3 0-.83.34-1.58.88-2.12s1.29-.88 2.12-.88z" fill="#fcd770"/></g><g><path d="m5 56c-.83 0-1.58-.34-2.12-.88s-.88-1.29-.88-2.12c0-1.66 1.34-3 3-3h23c0 1.66.67 3.16 1.76 4.24.62.63 1.39 1.12 2.24 1.41v.35c0 3.31-2.69 6-6 6h-21c-.83 0-1.58-.34-2.12-.88s-.88-1.29-.88-2.12c0-1.66 1.34-3 3-3z" fill="#48cfad"/></g><g><path d="m5 8c-.83 0-1.58-.34-2.12-.88s-.88-1.29-.88-2.12c0-1.66 1.34-3 3-3h21c1.66 0 3.16.67 4.24 1.76 1.09 1.08 1.76 2.58 1.76 4.24 0 3.31-2.69 6-6 6h-21c-.83 0-1.58-.34-2.12-.88s-.88-1.29-.88-2.12c0-1.66 1.34-3 3-3z" fill="#fc6e51"/></g><g><path d="m28 44v6h-23c-.83 0-1.58-.34-2.12-.88s-.88-1.29-.88-2.12c0-1.66 1.34-3 3-3h20z" fill="#ccd1d9"/></g><g><path d="m28 39v5h-3-20c-.83 0-1.58-.34-2.12-.88s-.88-1.29-.88-2.12c0-1.66 1.34-3 3-3h6 14 2c.55 0 1 .45 1 1z" fill="#ccd1d9"/></g></g><g><path d="m63 20c0-2.548-1.373-4.775-3.413-6 2.04-1.225 3.413-3.452 3.413-6 0-3.86-3.14-7-7-7h-30-21c-2.206 0-4 1.794-4 4 0 1.193.525 2.267 1.357 3-.832.733-1.357 1.807-1.357 3 0 1.2.542 2.266 1.382 3-.84.734-1.382 1.8-1.382 3 0 1.193.525 2.267 1.357 3-.832.733-1.357 1.807-1.357 3 0 2.206 1.794 4 4 4h2.556c-.344.591-.556 1.268-.556 2 0 1.193.525 2.267 1.357 3-.832.733-1.357 1.807-1.357 3 0 .732.212 1.409.556 2h-2.556c-2.206 0-4 1.794-4 4 0 1.2.542 2.266 1.382 3-.84.734-1.382 1.8-1.382 3s.542 2.266 1.382 3c-.84.734-1.382 1.8-1.382 3s.542 2.266 1.382 3c-.84.734-1.382 1.8-1.382 3 0 2.206 1.794 4 4 4h21 30c3.86 0 7-3.14 7-7 0-1.041-.245-2.062-.687-2.995.436-.912.687-1.929.687-3.005v-18c0-2.548-1.373-4.775-3.413-6 2.04-1.225 3.413-3.452 3.413-6zm-7-17c2.757 0 5 2.243 5 5s-2.243 5-5 5h-25.11c1.3-1.272 2.11-3.042 2.11-5s-.81-3.728-2.11-5zm-53 8c0-1.103.897-2 2-2h22v-2h-22c-1.103 0-2-.897-2-2s.897-2 2-2h21c2.757 0 5 2.243 5 5s-2.243 5-5 5h-21c-1.103 0-2-.897-2-2zm0 12c0-1.103.897-2 2-2h22v-2h-22c-1.103 0-2-.897-2-2s.897-2 2-2h21c2.757 0 5 2.243 5 5s-2.243 5-5 5h-15-6c-1.103 0-2-.897-2-2zm6 12c0-1.103.897-2 2-2h20c1.103 0 2 .897 2 2v16h2v-16c0-2.206-1.794-4-4-4h-20c-1.103 0-2-.897-2-2s.897-2 2-2h15 2 6c2.757 0 5 2.243 5 5v18c0 2.757-2.243 5-5 5s-5-2.243-5-5v-11c0-1.103-.897-2-2-2h-2-14c-1.103 0-2-.897-2-2zm-6 12c0-1.103.897-2 2-2h20v-2h-20c-1.103 0-2-.897-2-2s.897-2 2-2h6 14 2v10h-22c-1.103 0-2-.897-2-2zm2 14c-1.103 0-2-.897-2-2s.897-2 2-2h22v-2h-22c-1.103 0-2-.897-2-2s.897-2 2-2h22.08c.337 2.341 1.833 4.307 3.89 5.3-.159 2.615-2.316 4.7-4.97 4.7zm51 0h-25.11c1.095-1.071 1.836-2.497 2.044-4.09.348.054.703.09 1.066.09h22c1.901 0 3.626-.764 4.889-1.999.067.328.111.661.111.999 0 2.757-2.243 5-5 5zm4.466-31.203c.331.668.534 1.409.534 2.203v5c-.633 0-1.224.161-1.757.424-.803-1.243-1.243-2.437-1.243-3.424 0-1.349 1.162-2.939 2.466-4.203zm-1.466 11.203c0-1.103.897-2 2-2v4c-1.103 0-2-.897-2-2zm-1.576 1.757c-1.243.803-2.437 1.243-3.424 1.243-1.708 0-3.67-1.819-4.708-3 1.038-1.181 3-3 4.708-3 .987 0 2.181.44 3.424 1.243-.263.533-.424 1.124-.424 1.757s.161 1.224.424 1.757zm1.819 1.819c.533.263 1.124.424 1.757.424v5c0 .794-.203 1.535-.534 2.203-1.304-1.265-2.466-2.854-2.466-4.203 0-.987.44-2.181 1.243-3.424zm-.019-16.365c-1.353 1.277-3.224 3.465-3.224 5.789 0 .874.216 1.731.533 2.533-.802-.317-1.659-.533-2.533-.533-3.402 0-6.462 3.95-6.8 4.4l-.45.6.45.6c.337.45 3.398 4.4 6.8 4.4.874 0 1.731-.216 2.533-.533-.317.802-.533 1.659-.533 2.533 0 2.324 1.871 4.511 3.224 5.79-.873.744-1.99 1.21-3.224 1.21h-17.11c1.3-1.272 2.11-3.042 2.11-5v-18c0-1.958-.81-3.728-2.11-5h17.11c1.234 0 2.351.466 3.224 1.211zm-25.224-3.211h-3.11c1.3-1.272 2.11-3.042 2.11-5s-.81-3.728-2.11-5h25.11c2.757 0 5 2.243 5 5s-2.243 5-5 5z"/><circle cx="56" cy="41" r="1"/></g></g></svg>

<svg height="512" viewBox="0 0 64 64" width="512" xmlns="http://www.w3.org/2000/svg"><path d="M56 14c3.31 0 6 2.69 6 6 0 1.66-.67 3.16-1.76 4.24A5.944 5.944 0 0156 26H26c3.31 0 6-2.69 6-6 0-1.66-.67-3.16-1.76-4.24A5.944 5.944 0 0026 14z" fill="#5cd6b3"/><path d="M5 20c-.83 0-1.58-.34-2.12-.88S2 17.83 2 17c0-1.66 1.34-3 3-3h21c1.66 0 3.16.67 4.24 1.76A5.944 5.944 0 0132 20c0 3.31-2.69 6-6 6H5c-.83 0-1.58-.34-2.12-.88S2 23.83 2 23c0-1.66 1.34-3 3-3z" fill="#48cfad"/><path d="M56 2c3.31 0 6 2.69 6 6 0 1.66-.67 3.16-1.76 4.24A5.944 5.944 0 0156 14H26c3.31 0 6-2.69 6-6 0-1.66-.67-3.16-1.76-4.24A5.944 5.944 0 0026 2zM62 43.83V50c0 1.1-.29 2.12-.8 3-.16.26-.33.51-.52.75C59.74 52.96 57 50.48 57 48c0-1.83 1.1-3.64 1.98-4.79.53.49 1.24.79 2.02.79a3 3 0 001-.17z" fill="#ff826e"/><path d="M58.98 43.21a.856.856 0 01-.19-.19C58.3 42.49 58 41.78 58 41s.3-1.49.79-2.02c.05-.07.12-.14.19-.19.53-.49 1.24-.79 2.02-.79a3 3 0 011 .17v5.66a3 3 0 01-1 .17c-.78 0-1.49-.3-2.02-.79z" fill="#fc6e51"/><path d="M62 32v6.17a3 3 0 00-1-.17c-.78 0-1.49.3-2.02.79C58.1 37.64 57 35.83 57 34c0-2.48 2.74-4.96 3.68-5.75A5.944 5.944 0 0162 32z" fill="#ff826e"/><path d="M61.2 53c.51.88.8 1.91.8 3 0 1.66-.67 3.16-1.76 4.24A5.944 5.944 0 0156 62H26c3.31 0 6-2.69 6-6v-.35c.63.23 1.3.35 2 .35h22c1.89 0 3.58-.88 4.68-2.25.19-.24.36-.49.52-.75z" fill="#5cd6b3"/><path d="M56 26c1.89 0 3.58.88 4.68 2.25-.94.79-3.68 3.27-3.68 5.75 0 1.83 1.1 3.64 1.98 4.79-.07.05-.14.12-.19.19C57.64 38.1 55.83 37 54 37c-3 0-6 4-6 4s3 4 6 4c1.83 0 3.64-1.1 4.79-1.98.05.07.12.14.19.19C58.1 44.36 57 46.17 57 48c0 2.48 2.74 4.96 3.68 5.75A5.994 5.994 0 0156 56H34c3.31 0 6-2.69 6-6V32c0-3.31-2.69-6-6-6z" fill="#ffeaa7"/><path d="M58.79 38.98c-.49.53-.79 1.24-.79 2.02s.3 1.49.79 2.02C57.64 43.9 55.83 45 54 45c-3 0-6-4-6-4s3-4 6-4c1.83 0 3.64 1.1 4.79 1.98z" fill="#ff826e"/><path d="M11 32a2.996 2.996 0 01-2.12-5.12c.54-.54 1.29-.88 2.12-.88h23c3.31 0 6 2.69 6 6v18c0 3.31-2.69 6-6 6-.7 0-1.37-.12-2-.35-.85-.29-1.62-.78-2.24-1.41A5.944 5.944 0 0128 50V39c0-.55-.45-1-1-1H11a2.996 2.996 0 01-2.12-5.12c.54-.54 1.29-.88 2.12-.88z" fill="#fcd770"/><path d="M5 56c-.83 0-1.58-.34-2.12-.88S2 53.83 2 53c0-1.66 1.34-3 3-3h23c0 1.66.67 3.16 1.76 4.24.62.63 1.39 1.12 2.24 1.41V56c0 3.31-2.69 6-6 6H5c-.83 0-1.58-.34-2.12-.88S2 59.83 2 59c0-1.66 1.34-3 3-3z" fill="#48cfad"/><path d="M5 8c-.83 0-1.58-.34-2.12-.88S2 5.83 2 5c0-1.66 1.34-3 3-3h21c1.66 0 3.16.67 4.24 1.76A5.944 5.944 0 0132 8c0 3.31-2.69 6-6 6H5c-.83 0-1.58-.34-2.12-.88S2 11.83 2 11c0-1.66 1.34-3 3-3z" fill="#fc6e51"/><path d="M28 44v6H5c-.83 0-1.58-.34-2.12-.88S2 47.83 2 47c0-1.66 1.34-3 3-3h20zM28 39v5H5c-.83 0-1.58-.34-2.12-.88S2 41.83 2 41c0-1.66 1.34-3 3-3h22c.55 0 1 .45 1 1z" fill="#ccd1d9"/><g><path d="M63 20c0-2.548-1.373-4.775-3.413-6C61.627 12.775 63 10.548 63 8c0-3.86-3.14-7-7-7H5C2.794 1 1 2.794 1 5a3.99 3.99 0 001.357 3A3.99 3.99 0 001 11c0 1.2.542 2.266 1.382 3A3.975 3.975 0 001 17a3.99 3.99 0 001.357 3A3.99 3.99 0 001 23c0 2.206 1.794 4 4 4h2.556A3.959 3.959 0 007 29a3.99 3.99 0 001.357 3A3.99 3.99 0 007 35c0 .732.212 1.409.556 2H5c-2.206 0-4 1.794-4 4 0 1.2.542 2.266 1.382 3C1.542 44.734 1 45.8 1 47s.542 2.266 1.382 3C1.542 50.734 1 51.8 1 53s.542 2.266 1.382 3A3.975 3.975 0 001 59c0 2.206 1.794 4 4 4h51c3.86 0 7-3.14 7-7a7.003 7.003 0 00-.687-2.995A6.947 6.947 0 0063 50V32c0-2.548-1.373-4.775-3.413-6C61.627 24.775 63 22.548 63 20zM56 3c2.757 0 5 2.243 5 5s-2.243 5-5 5H30.89a6.977 6.977 0 000-10zM3 11c0-1.103.897-2 2-2h22V7H5c-1.103 0-2-.897-2-2s.897-2 2-2h21c2.757 0 5 2.243 5 5s-2.243 5-5 5H5c-1.103 0-2-.897-2-2zm0 12c0-1.103.897-2 2-2h22v-2H5c-1.103 0-2-.897-2-2s.897-2 2-2h21c2.757 0 5 2.243 5 5s-2.243 5-5 5H5c-1.103 0-2-.897-2-2zm6 12c0-1.103.897-2 2-2h20c1.103 0 2 .897 2 2v16h2V35c0-2.206-1.794-4-4-4H11c-1.103 0-2-.897-2-2s.897-2 2-2h23c2.757 0 5 2.243 5 5v18c0 2.757-2.243 5-5 5s-5-2.243-5-5V39c0-1.103-.897-2-2-2H11c-1.103 0-2-.897-2-2zM3 47c0-1.103.897-2 2-2h20v-2H5c-1.103 0-2-.897-2-2s.897-2 2-2h22v10H5c-1.103 0-2-.897-2-2zm2 14c-1.103 0-2-.897-2-2s.897-2 2-2h22v-2H5c-1.103 0-2-.897-2-2s.897-2 2-2h22.08a7.005 7.005 0 003.89 5.3C30.811 58.915 28.654 61 26 61zm51 0H30.89a6.979 6.979 0 002.044-4.09c.348.054.703.09 1.066.09h22a6.974 6.974 0 004.889-1.999c.067.328.111.661.111.999 0 2.757-2.243 5-5 5zm4.466-31.203A4.94 4.94 0 0161 32v5c-.633 0-1.224.161-1.757.424C58.44 36.181 58 34.987 58 34c0-1.349 1.162-2.939 2.466-4.203zM59 41c0-1.103.897-2 2-2v4c-1.103 0-2-.897-2-2zm-1.576 1.757C56.181 43.56 54.987 44 54 44c-1.708 0-3.67-1.819-4.708-3 1.038-1.181 3-3 4.708-3 .987 0 2.181.44 3.424 1.243C57.161 39.776 57 40.367 57 41s.161 1.224.424 1.757zm1.819 1.819A3.953 3.953 0 0061 45v5a4.94 4.94 0 01-.534 2.203C59.162 50.938 58 49.349 58 48c0-.987.44-2.181 1.243-3.424zm-.019-16.365C57.871 29.488 56 31.676 56 34c0 .874.216 1.731.533 2.533C55.731 36.216 54.874 36 54 36c-3.402 0-6.462 3.95-6.8 4.4l-.45.6.45.6c.337.45 3.398 4.4 6.8 4.4.874 0 1.731-.216 2.533-.533C56.216 46.269 56 47.126 56 48c0 2.324 1.871 4.511 3.224 5.79-.873.744-1.99 1.21-3.224 1.21H38.89A6.977 6.977 0 0041 50V32c0-1.958-.81-3.728-2.11-5H56c1.234 0 2.351.466 3.224 1.211zM34 25h-3.11a6.977 6.977 0 000-10H56c2.757 0 5 2.243 5 5s-2.243 5-5 5z"/><circle cx="56" cy="41" r="1"/></g></svg>
